X:1
T:Bring The Wagon Home, John
T:Bring The Wagon Home, John - TTBB
T:Anon.
C:Anon.
%%score [ 1 2 3 4 ]
L:1/8
Q:1/4=60
M:2/4
K:Ab
V:1 treble-8 nm="Soprano"
V:2 treble-8 nm="Alto"
V:3 bass nm="Tenor"
V:4 bass nm="Bass"
V:1
 E | e3/2 e/ e e | =e e2 e | f f f d | c2 z c | c3/2 c/ c d | e c f e | =d/ d3/2 d d | _d2 z E | %9
w: Oh,|bring the wag- on|home, John, It|will not hold us|all. We|used to ride a-|round in it, When|you and I were|small. Oh,|
 e3/2 e/ e e | _g g2 g | f f f d | c2 z c | c3/2 c/ c d | e c !fermata!f e | =d/ d3/2 _d d | c3 |] %17
w: bring the wag- on|home, John, It|will not hold us|all. We|used to ride a-|round in it, When|you and I were|small.|
V:2
 E | E3/2 E/ E E | =E E2 E | F F F D | C2 z C | C3/2 C/ C D | E C F E | =D/ D3/2 D D | _D2 z E | %9
w: Oh,|bring the wag- on|home, John, It|will not hold us|all. We|used to ride a-|round in it, When|you and I were|small. Oh,|
 E3/2 E/ E E | _G G2 G | F F F D | C2 z C | C3/2 C/ C D | E C !fermata!F E | =D/ D3/2 _D D | C3 |] %17
w: bring the wag- on|home, John, It|will not hold us|all. We|used to ride a-|round in it, When|you and I were|small.|
V:3
 E, | A,3/2 A,/ A, A, | G, G,2 G, | F, F, A, A, | A,2 z A, | A,3/2 A,/ A, A, | A, A, =A, A, | %7
w: Oh,|bring the wag- on|home, John, It|will not hold us|all. We|used to ride a-|round in it, When|
 _A,/ A,3/2 F, A, | G,2 z E, | A,3/2 A,/ A, A, | A, A,2 C | D D D A, | A,2 z E, | A,3/2 A,/ A, A, | %14
w: you and I were|small. Oh,|bring the wag- on|home, John, It|will not hold us|all. We|used to ride a-|
 A, A, !fermata!=A, A, | F,/ F,3/2 E, E, | E,3 |] %17
w: round in it, When|you and I were|small.|
V:4
 D, | A,,3/2 A,,/ A,, A,, | C, C,2 C, | D, D, D, D, | A,,2 z A,, | A,,3/2 A,,/ A,, A,, | %6
w: Oh,|bring the wag- on|home, John, It|will not hold us|all. We|used to ride a-|
 A,, A, F, F, | B,,/ B,,3/2 B,, B,, | E,2 z E, | A,,3/2 A,,/ A,, A,, | E, E,2 A,, | D, D, D, D, | %12
w: round in it, When|you and I were|small. Oh,|bring the wag- on|home, John, It|will not hold us|
 A,,2 z E, | A,,3/2 A,,/ A,, A,, | A,, A, !fermata!F, F, | B,,/ B,,3/2 E, E,, | A,,3 |] %17
w: all. We|used to ride a-|round in it, When|you and I were|small.|

